X: 23472
T: Levenshulme Leap
R: reel
M: 4/4
K: Gmajor
|:Gged B3G|BGAB AGEA|Gged B3G|EAAB A3B|
Gged B3G|BGAB AGDG|DEED EGAB|1 dedB A3 B:|2 dedB A2 GA||
|:BD D2 DEGA|BEED E2 GA|BD D2 DBAG|A2 GA BDGA|
BD D2 DEGA|BEED E2 DE|Gged edBA|BDAD GDGA|
BD D2 DEGA|BEED E2 GA|BD D2 DEGA|BddB ADGA|
BD D2 DEGA|BEGE ADGA|B2 GB A2 GA|BEED E2 BA||

